svg/l/MP.svg

<svg width="32" height="24" viewBox="0 0 32 24" fill="none" xmlns="http://www.w3.org/2000/svg">
<mask id="mask0" mask-type="alpha" maskUnits="userSpaceOnUse" x="0" y="0" width="32" height="24">
<rect width="32" height="24" fill="white"/>
</mask>
<g mask="url(#mask0)">
<path fill-rule="evenodd" clip-rule="evenodd" d="M0 0H34V24H0V0Z" fill="#2993EC"/>
<path fill-rule="evenodd" clip-rule="evenodd" d="M6.21277 11.5833C6.21277 16.8761 10.5947 21.1667 16 21.1667C21.4053 21.1667 25.7872 16.8761 25.7872 11.5833C25.7872 6.2906 21.4053 2 16 2C10.5947 2 6.21277 6.2906 6.21277 11.5833ZM23.6596 11.5833C23.6596 15.7255 20.2303 19.0833 16 19.0833C11.7697 19.0833 8.34043 15.7255 8.34043 11.5833C8.34043 7.4412 11.7697 4.08333 16 4.08333C20.2303 4.08333 23.6596 7.4412 23.6596 11.5833Z" fill="#F1F9FF"/>
<path fill-rule="evenodd" clip-rule="evenodd" d="M7.06384 11.5834C7.06384 16.4159 11.0647 20.3334 16 20.3334C20.9353 20.3334 24.9362 16.4159 24.9362 11.5834C24.9362 6.75088 20.9353 2.83337 16 2.83337C11.0647 2.83337 7.06384 6.75088 7.06384 11.5834ZM24.5107 11.5834C24.5107 16.1857 20.7003 19.9167 16 19.9167C11.2997 19.9167 7.48937 16.1857 7.48937 11.5834C7.48937 6.981 11.2997 3.25004 16 3.25004C20.7003 3.25004 24.5107 6.981 24.5107 11.5834Z" fill="#E31D1C"/>
<path fill-rule="evenodd" clip-rule="evenodd" d="M16 2.20837C15.8921 2.43105 15.8382 2.74747 15.8382 3.15764C15.8382 3.56782 15.6793 3.9784 15.3617 4.38941C15.3027 3.9369 15.2732 3.52632 15.2732 3.15764C15.2732 2.78897 15.5154 2.47255 16 2.20837ZM18.2362 2.547C18.081 2.7397 17.9573 3.03588 17.865 3.43554C17.7727 3.83519 17.5256 4.19953 17.1237 4.52854C17.168 4.07437 17.2316 3.66766 17.3145 3.30844C17.3974 2.94922 17.7047 2.6954 18.2362 2.547ZM19.773 4.16791C19.9592 3.80245 20.1509 3.545 20.3481 3.39557C19.7965 3.41098 19.4369 3.58293 19.2696 3.91142C19.1022 4.23991 18.9421 4.61914 18.7892 5.0491C19.2588 4.82711 19.5868 4.53338 19.773 4.16791ZM22.1912 4.68404C21.9654 4.78527 21.7207 4.993 21.457 5.30721C21.1934 5.62142 20.8078 5.83385 20.3002 5.94451C20.5459 5.55995 20.7872 5.22646 21.0242 4.94404C21.2612 4.66162 21.6502 4.57495 22.1912 4.68404ZM22.8279 6.79614C23.1555 6.54929 23.4407 6.40194 23.6834 6.35408C23.1808 6.1261 22.7823 6.12305 22.4879 6.34492C22.1935 6.56679 21.8833 6.83745 21.5574 7.15689C22.0769 7.16324 22.5003 7.04298 22.8279 6.79614ZM24.7466 8.33629C24.4994 8.32399 24.1871 8.39798 23.8095 8.55824C23.432 8.71851 22.9919 8.73274 22.4895 8.60093C22.883 8.36981 23.2494 8.18223 23.5888 8.03817C23.9281 7.89412 24.3141 7.99349 24.7466 8.33629ZM24.3524 10.4909C24.7564 10.4197 25.0773 10.4179 25.3154 10.4855C24.9711 10.0542 24.6174 9.87052 24.2543 9.93454C23.8912 9.99856 23.492 10.0989 23.0566 10.2356C23.5166 10.477 23.9485 10.5622 24.3524 10.4909ZM6.08398 9.7697C6.28454 9.91461 6.58679 10.0227 6.99073 10.0939C7.39467 10.1651 7.77144 10.3928 8.12104 10.777C7.66517 10.7566 7.2557 10.7143 6.89263 10.6503C6.52955 10.5863 6.26001 10.2927 6.08398 9.7697ZM7.62116 8.18713C7.24359 8.02686 6.9734 7.85357 6.81058 7.66726C6.86443 8.2165 7.06104 8.56314 7.4004 8.7072C7.73977 8.85125 8.12924 8.98452 8.56883 9.10702C8.31461 8.65402 7.99873 8.34739 7.62116 8.18713ZM8.02712 5.77364C8.14003 5.9938 8.36028 6.2273 8.68786 6.47415C9.01544 6.721 9.24776 7.09494 9.38483 7.59598C8.98794 7.37078 8.64228 7.14724 8.34784 6.92537C8.05341 6.7035 7.9465 6.31958 8.02712 5.77364ZM10.125 5.04805C9.86132 4.73384 9.69925 4.45678 9.63876 4.21686C9.43739 4.73068 9.4552 5.1288 9.69218 5.41122C9.92915 5.69364 10.2157 5.9892 10.5517 6.29792C10.5309 5.77889 10.3886 5.36227 10.125 5.04805ZM11.5726 3.06561C11.5776 3.31299 11.6732 3.61941 11.8594 3.98488C12.0456 4.35035 12.0905 4.78829 11.9941 5.29871C11.7361 4.92231 11.5234 4.56987 11.356 4.24138C11.1886 3.91289 11.2608 3.52097 11.5726 3.06561ZM13.801 3.34484C13.7087 2.94518 13.6901 2.62474 13.7451 2.3835C13.3324 2.7499 13.1675 3.11271 13.2505 3.47194C13.3334 3.83116 13.4545 4.22459 13.6138 4.65222C13.8308 4.18029 13.8932 3.7445 13.801 3.34484Z" fill="#FDDA33"/>
<path fill-rule="evenodd" clip-rule="evenodd" d="M14.5862 5.75C14.2194 5.75 13.9466 6.089 14.025 6.44728L14.4118 8.21501C14.4458 8.37032 14.5408 8.49935 14.6683 8.57918C14.5507 8.67059 14.4691 8.80708 14.4503 8.96483L13.0628 20.6104C13.0373 20.824 13.1329 21.0334 13.3197 21.1402C13.8419 21.4388 14.9742 22 16.1064 22C17.2387 22 18.3709 21.4388 18.8931 21.1402C19.0799 21.0334 19.1755 20.824 19.1501 20.6104L17.7625 8.96483C17.7437 8.80708 17.6621 8.67059 17.5446 8.57918C17.672 8.49935 17.767 8.37032 17.801 8.21501L18.1879 6.44728C18.2663 6.089 17.9934 5.75 17.6267 5.75H14.5862Z" fill="#A7A7A7"/>
<path d="M6.51928 12.0128C6.57086 11.8477 6.7493 11.7549 6.91785 11.8054C7.08639 11.8559 7.18122 12.0306 7.12964 12.1956C7.04041 12.4812 7.04041 12.9029 7.13885 13.4547C7.17661 13.6664 7.2215 13.8298 7.27672 13.9742C7.29871 14.0317 7.32146 14.0843 7.35185 14.1496C7.33831 14.1205 7.41249 14.2781 7.43053 14.3189C7.52592 14.5348 7.5681 14.724 7.5681 15.0012C7.5681 15.1738 7.42522 15.3137 7.24895 15.3137C7.07269 15.3137 6.92981 15.1738 6.92981 15.0012C6.92981 14.8118 6.90636 14.7066 6.84471 14.5671C6.83018 14.5342 6.76089 14.387 6.77098 14.4087C6.73497 14.3313 6.70676 14.266 6.67896 14.1933C6.60968 14.0122 6.55453 13.8114 6.51007 13.5623C6.39587 12.9221 6.39587 12.4077 6.51928 12.0128Z" fill="#73BE4A"/>
<path fill-rule="evenodd" clip-rule="evenodd" d="M16.2128 16.1792L12.0983 18.9827L13.5498 14.2848L9.55537 11.3195L14.567 11.2195L16.2128 6.58337L17.8586 11.2195L22.8702 11.3195L18.8757 14.2848L20.3273 18.9827L16.2128 16.1792Z" fill="#F7FCFF"/>
<path d="M25.5595 12.4295C25.5079 12.2645 25.3294 12.1716 25.1609 12.2221C24.9923 12.2726 24.8975 12.4474 24.9491 12.6124C25.0383 12.8979 25.0383 13.3197 24.9399 13.8715C24.9021 14.0831 24.8572 14.2465 24.802 14.3909C24.78 14.4484 24.7573 14.5011 24.7269 14.5664C24.7404 14.5373 24.6662 14.6948 24.6482 14.7357C24.5528 14.9516 24.5106 15.1408 24.5106 15.418C24.5106 15.5906 24.6535 15.7305 24.8298 15.7305C25.006 15.7305 25.1489 15.5906 25.1489 15.418C25.1489 15.2285 25.1724 15.1234 25.234 14.9838C25.2486 14.951 25.3178 14.8038 25.3078 14.8255C25.3438 14.7481 25.372 14.6828 25.3998 14.6101C25.4691 14.429 25.5242 14.2282 25.5687 13.979C25.6829 13.3389 25.6829 12.8244 25.5595 12.4295Z" fill="#73BE4A"/>
<path d="M16.0608 3.14758C16.0608 3.14758 17.2252 3.66632 16.7223 4.48307" stroke="#73BE4A" stroke-linecap="round" stroke-linejoin="round"/>
<path d="M16.9119 3.14758C16.9119 3.14758 18.0762 3.66632 17.5734 4.48307" stroke="#73BE4A" stroke-linecap="round" stroke-linejoin="round"/>
<path d="M9.2598 6.35669C9.34422 6.21057 9.52153 6.16657 9.65584 6.25841C9.79015 6.35026 9.83059 6.54317 9.74617 6.68929C9.5842 6.96964 9.49988 7.35429 9.49988 7.84749C9.49988 8.02007 9.37128 8.15999 9.21265 8.15999C9.05401 8.15999 8.92542 8.02007 8.92542 7.84749C8.92542 7.24474 9.03466 6.74639 9.2598 6.35669Z" fill="#73BE4A"/>
<path d="M8.80848 9.21258C8.80848 9.38517 8.67988 9.52508 8.52124 9.52508C8.36261 9.52508 8.23401 9.38517 8.23401 9.21258V8.32241C8.23401 7.69254 8.33281 7.19651 8.54113 6.83428C8.62528 6.68797 8.80251 6.64358 8.93699 6.73513C9.07147 6.82667 9.11227 7.01949 9.02813 7.1658C8.88527 7.4142 8.80848 7.79974 8.80848 8.32241V9.21258Z" fill="#73BE4A"/>
<path d="M23.4841 8.79583C23.4841 8.96842 23.6127 9.10833 23.7714 9.10833C23.93 9.10833 24.0586 8.96842 24.0586 8.79583V7.90566C24.0586 7.2758 23.9598 6.77977 23.7515 6.41753C23.6673 6.27123 23.4901 6.22683 23.3556 6.31838C23.2211 6.40993 23.1803 6.60275 23.2645 6.74905C23.4073 6.99745 23.4841 7.383 23.4841 7.90566V8.79583Z" fill="#73BE4A"/>
<path d="M24.3352 10.2542C24.3352 10.4268 24.4638 10.5667 24.6224 10.5667C24.7811 10.5667 24.9097 10.4268 24.9097 10.2542V9.36404C24.9097 8.73417 24.8109 8.23814 24.6025 7.87591C24.5184 7.7296 24.3412 7.68521 24.2067 7.77675C24.0722 7.8683 24.0314 8.06112 24.1155 8.20743C24.2584 8.45582 24.3352 8.84137 24.3352 9.36404V10.2542Z" fill="#73BE4A"/>
</g>
</svg>

<svg width="32" height="24" fill="none" xmlns="http://www.w3.org/2000/svg">
  <mask id="a" maskUnits="userSpaceOnUse" x="0" y="0" width="32" height="24">
    <path fill="#fff" d="M0 0h32v24H0z"/>
  </mask>
  <g mask="url(#a)">
    <path fill-rule="evenodd" clip-rule="evenodd" d="M0 0h34v24H0V0z" fill="#2993EC"/>
    <path fill-rule="evenodd" clip-rule="evenodd" d="M6.213 11.583c0 5.293 4.382 9.584 9.787 9.584 5.405 0 9.787-4.29 9.787-9.584C25.787 6.291 21.405 2 16 2c-5.405 0-9.787 4.29-9.787 9.583zm17.447 0c0 4.143-3.43 7.5-7.66 7.5s-7.66-3.357-7.66-7.5c0-4.142 3.43-7.5 7.66-7.5s7.66 3.358 7.66 7.5z" fill="#F1F9FF"/>
    <path fill-rule="evenodd" clip-rule="evenodd" d="M7.064 11.583c0 4.833 4 8.75 8.936 8.75 4.935 0 8.936-3.917 8.936-8.75 0-4.832-4-8.75-8.936-8.75-4.935 0-8.936 3.918-8.936 8.75zm17.447 0c0 4.603-3.81 8.334-8.511 8.334-4.7 0-8.51-3.731-8.51-8.334C7.49 6.981 11.3 3.25 16 3.25c4.7 0 8.51 3.731 8.51 8.333z" fill="#E31D1C"/>
    <path fill-rule="evenodd" clip-rule="evenodd" d="M16 2.208c-.108.223-.162.54-.162.95 0 .41-.159.82-.476 1.231a9.603 9.603 0 01-.089-1.231c0-.37.242-.685.727-.95zm2.236.339c-.155.193-.279.489-.371.888-.092.4-.34.764-.741 1.094.044-.455.108-.861.19-1.22.083-.36.39-.614.922-.762zm1.537 1.62c.186-.365.378-.622.575-.771-.551.015-.911.187-1.078.515a9.605 9.605 0 00-.48 1.138c.469-.222.797-.516.983-.881zm2.418.517c-.226.101-.47.309-.734.623s-.65.527-1.157.637c.246-.384.487-.718.724-1 .237-.282.626-.37 1.167-.26zm.637 2.112c.328-.247.613-.394.855-.442-.502-.228-.9-.231-1.195-.01a9.61 9.61 0 00-.93.813c.519.006.942-.114 1.27-.36zm1.919 1.54c-.248-.012-.56.062-.938.222-.377.16-.817.175-1.32.043.394-.231.76-.419 1.1-.563.34-.144.725-.045 1.158.298zm-.395 2.155c.404-.071.725-.073.963-.006-.344-.43-.698-.615-1.06-.55a9.616 9.616 0 00-1.198.3c.46.242.892.327 1.295.256zM6.084 9.77c.2.145.503.253.907.324.404.071.78.299 1.13.683a9.612 9.612 0 01-1.228-.127c-.363-.064-.633-.357-.809-.88zm1.537-1.583c-.377-.16-.648-.333-.81-.52.053.55.25.896.59 1.04.339.144.728.277 1.168.4-.254-.453-.57-.76-.948-.92zm.406-2.413c.113.22.333.453.66.7.328.247.56.62.698 1.122a9.605 9.605 0 01-1.037-.67c-.295-.223-.402-.606-.32-1.152zm2.098-.726c-.264-.314-.426-.591-.486-.831-.202.514-.184.912.053 1.194.237.283.524.578.86.887-.021-.52-.163-.936-.427-1.25zm1.448-1.982c.005.247.1.553.286.919.187.365.232.803.135 1.314a9.608 9.608 0 01-.638-1.058c-.167-.328-.095-.72.217-1.175zm2.228.279c-.092-.4-.11-.72-.056-.962-.413.367-.577.73-.494 1.089.082.36.204.753.363 1.18.217-.472.28-.908.187-1.307z" fill="#FDDA33"/>
    <path fill-rule="evenodd" clip-rule="evenodd" d="M14.586 5.75a.574.574 0 00-.561.697l.387 1.768a.574.574 0 00.256.364.573.573 0 00-.218.386L13.063 20.61a.53.53 0 00.257.53c.522.299 1.654.86 2.786.86 1.133 0 2.265-.561 2.787-.86a.531.531 0 00.257-.53L17.763 8.965a.574.574 0 00-.218-.386.574.574 0 00.256-.364l.387-1.768a.575.575 0 00-.561-.697h-3.04z" fill="#A7A7A7"/>
    <path d="M6.52 12.013a.32.32 0 01.398-.208c.168.05.263.226.212.39-.09.286-.09.708.009 1.26.038.211.082.375.138.52.022.057.044.11.075.175l.079.169c.095.216.137.405.137.682a.316.316 0 01-.319.313.316.316 0 01-.32-.313.94.94 0 00-.084-.434 13.71 13.71 0 00-.074-.158 3.206 3.206 0 01-.092-.216 3.413 3.413 0 01-.169-.63c-.114-.64-.114-1.155.01-1.55z" fill="#73BE4A"/>
    <path fill-rule="evenodd" clip-rule="evenodd" d="M16.213 16.18l-4.115 2.803 1.452-4.698-3.995-2.966 5.012-.1 1.646-4.636 1.646 4.636 5.011.1-3.994 2.966 1.451 4.698-4.114-2.804z" fill="#F7FCFF"/>
    <path d="M25.56 12.43a.32.32 0 00-.4-.208.311.311 0 00-.21.39c.088.286.088.708-.01 1.26a2.812 2.812 0 01-.138.519c-.022.057-.045.11-.075.175l-.079.17a1.546 1.546 0 00-.137.682c0 .173.143.312.319.312.176 0 .319-.14.319-.312a.94.94 0 01.085-.434l.074-.159c.036-.077.064-.142.092-.215a3.4 3.4 0 00.169-.631c.114-.64.114-1.155-.01-1.55z" fill="#73BE4A"/>
    <path d="M16.06 3.148s1.165.518.662 1.335m.19-1.335s1.164.518.661 1.335" stroke="#73BE4A" stroke-linecap="round" stroke-linejoin="round"/>
    <path d="M9.26 6.357a.274.274 0 01.396-.099.33.33 0 01.09.431c-.162.28-.246.665-.246 1.159 0 .172-.129.312-.287.312-.159 0-.288-.14-.288-.312 0-.603.11-1.102.335-1.491z" fill="#73BE4A"/>
    <path d="M8.808 9.213c0 .172-.128.312-.287.312-.158 0-.287-.14-.287-.312v-.89c0-.63.099-1.127.307-1.489a.274.274 0 01.396-.099.329.329 0 01.091.43c-.143.25-.22.635-.22 1.157v.89zm14.676-.417c0 .172.129.312.287.312.159 0 .288-.14.288-.312v-.89c0-.63-.1-1.126-.308-1.488a.274.274 0 00-.395-.1.329.329 0 00-.091.431c.142.248.22.634.22 1.157v.89z" fill="#73BE4A"/>
    <path d="M24.335 10.254c0 .173.129.313.287.313.16 0 .288-.14.288-.313v-.89c0-.63-.1-1.126-.308-1.488a.274.274 0 00-.395-.1.329.329 0 00-.091.431c.142.249.22.634.22 1.157v.89z" fill="#73BE4A"/>
  </g>
</svg>
